images/vector/footer/YouTube.svg

<svg width="16" height="11" viewBox="0 0 16 11" fill="none" xmlns="http://www.w3.org/2000/svg"><path d="M15.6671 1.67464c-.0906-.32318-.2671-.61577-.5107-.846667a2.033642 2.033642 0 0 0-.892-.494667c-1.252-.33-6.26799-.33-6.26799-.33a51.082775 51.082775 0 0 0-6.26.313333 2.106645 2.106645 0 0 0-.891999.506667c-.246666.237334-.425333.530004-.518666.850664a19.393328 19.393328 0 0 0-.325334 3.66267c-.008 1.22733.100667 2.45333.325334 3.66267.091333.31933.269333.61066.516666.846.247329.23529.555329.40529.893999.49529 1.26867.3294 6.26.3294 6.26.3294 2.09379.0238 4.18709-.0808 6.26799-.3134.3345-.0864.6415-.2566.892-.49463.2435-.23085.4198-.52348.51-.84666.2301-1.20737.3419-2.43428.334-3.66334a17.720817 17.720817 0 0 0-.3333-3.678v.00067ZM6.40174 7.61931V3.05464l4.17336 2.28267-4.17336 2.282Z" fill="#444"/></svg>

<svg width="16" height="11" viewBox="0 0 16 11" fill="none" xmlns="http://www.w3.org/2000/svg">
<path d="M15.6671 1.67464C15.5765 1.35146 15.4 1.05887 15.1564 0.827973C14.9059 0.589975 14.5989 0.41973 14.2644 0.333306C13.0124 0.00330585 7.99641 0.00330593 7.99641 0.00330593C5.9053 -0.0204856 3.8147 0.0841556 1.73641 0.316639C1.40187 0.409448 1.09545 0.583497 0.844411 0.823306C0.597745 1.06064 0.419078 1.35331 0.325745 1.67397C0.10154 2.8818 -0.00739387 4.1082 0.000411455 5.33664C-0.00758854 6.56397 0.101078 7.78997 0.325745 8.99931C0.417078 9.31864 0.595078 9.60997 0.842411 9.84531C1.08974 10.0806 1.39774 10.2506 1.73641 10.3406C3.00508 10.67 7.99641 10.67 7.99641 10.67C10.0902 10.6938 12.1835 10.5892 14.2644 10.3566C14.5989 10.2702 14.9059 10.1 15.1564 9.86197C15.3999 9.63112 15.5762 9.33849 15.6664 9.01531C15.8965 7.80794 16.0083 6.58103 16.0004 5.35197C16.0177 4.11771 15.906 2.88502 15.6671 1.67397V1.67464ZM6.40174 7.61931V3.05464L10.5751 5.33731L6.40174 7.61931Z" fill="#444444"/>
</svg>
